src/assets/img/providers/elk.svg

<svg width="78" height="30" viewBox="0 0 78 30" fill="none" xmlns="http://www.w3.org/2000/svg">
<path fill-rule="evenodd" clip-rule="evenodd" d="M6.80088 28.4078C6.80088 29.1878 6.26467 30 4.80259 30C3.86817 30 3.16966 29.6425 2.72282 29.1392L3.12957 28.6194C3.33956 28.864 3.59998 29.0603 3.89295 29.1948C4.18592 29.3293 4.50452 29.3989 4.8269 29.3987C5.79352 29.3987 6.10237 28.879 6.10237 28.4564C6.10237 27.8145 5.42493 27.6322 4.6926 27.4352C3.83112 27.2034 2.89367 26.9511 2.89367 25.9062C2.89367 25.0131 3.69009 24.3955 4.76185 24.3955C5.58259 24.3955 6.22393 24.68 6.67866 25.159L6.27256 25.6545C5.86646 25.1998 5.29806 25.0046 4.70534 25.0046C4.06333 25.0046 3.59218 25.3542 3.59218 25.8654C3.59218 26.3978 4.20497 26.5643 4.89496 26.7517C5.78386 26.9932 6.80088 27.2695 6.80088 28.4078ZM16.2706 25.0861V29.9021H15.5964V25.0861H13.8826V24.4848H17.9922V25.0861H16.2706ZM29.8098 27.7908C29.8098 29.1392 29.0627 30 27.5927 30C26.1306 30 25.3835 29.1306 25.3835 27.7987V24.4848H26.0656V27.7822C26.0656 28.7732 26.5939 29.3987 27.5927 29.3987C28.5915 29.3987 29.1277 28.7732 29.1277 27.7822V24.4848H29.8098V27.7908ZM38.2485 29.3015H39.4261C40.7423 29.3015 41.5052 28.3592 41.5052 27.1981C41.5052 26.0284 40.7666 25.0861 39.4261 25.0861H38.2485V29.3015ZM42.2037 27.1981C42.2037 28.741 41.1155 29.9021 39.4261 29.9021H37.5743V24.4848H39.4261C41.1155 24.4848 42.2037 25.663 42.2037 27.1981ZM50.4315 29.9021H49.7573V24.4848H50.4315V29.9021ZM58.675 27.1981C58.675 28.4564 59.4464 29.3987 60.6647 29.3987C61.8751 29.3987 62.663 28.4564 62.663 27.1981C62.663 25.9305 61.8751 24.9967 60.6647 24.9967C59.4464 24.9967 58.675 25.9305 58.675 27.1981ZM63.3615 27.1981C63.3615 28.7981 62.2648 30 60.6647 30C59.0646 30 57.9765 28.7981 57.9765 27.1981C57.9765 25.5973 59.0646 24.3955 60.6647 24.3955C62.2648 24.3955 63.3615 25.5973 63.3615 27.1981ZM74.6587 28.4078C74.6587 29.1878 74.1231 30 72.661 30C71.7266 30 71.0281 29.6425 70.5819 29.1392L70.988 28.6194C71.198 28.864 71.4584 29.0603 71.7514 29.1948C72.0444 29.3293 72.363 29.3989 72.6854 29.3987C73.652 29.3987 73.9602 28.879 73.9602 28.4564C73.9602 27.8145 73.2829 27.6322 72.5507 27.4352C71.6894 27.2034 70.7521 26.9511 70.7521 25.9062C70.7521 25.0131 71.5479 24.3955 72.6203 24.3955C73.4404 24.3955 74.0824 24.68 74.5371 25.159L74.131 25.6545C73.7249 25.1998 73.1565 25.0046 72.5631 25.0046C71.9218 25.0046 71.4506 25.3542 71.4506 25.8654C71.4506 26.3978 72.0633 26.5643 72.7532 26.7517C73.6419 26.9932 74.6587 27.2695 74.6587 28.4078ZM56.1727 19.1602L56.1845 13.1594L63.349 19.1602H73.9188L63.1381 10.113L73.8064 1.2932H63.5804L56.1556 6.61388L56.1812 1.2932H48.4456V12.5733H33.1033V1.20252L7.01642 1.22749C6.47298 1.22749 4.6048 1.32803 3.41016 2.62452C1.9599 4.19897 1.96582 6.11053 1.98356 6.49823L1.98093 14.149C1.97699 14.4257 2.01116 16.2387 3.42396 17.7323C4.69942 19.08 6.48152 19.2259 7.18792 19.2259C7.25607 19.2259 7.32421 19.2244 7.39229 19.2213H26.3843V19.22L49.8282 19.1602H56.1727ZM77.1485 0.0906824L65.0175 10.1203L77.2228 20.3627H62.9121L57.3818 15.7314L57.3732 20.3627H51.0307L27.5868 20.4238L7.18792 20.4284C6.32579 20.4284 4.14679 20.2464 2.55065 18.5589C0.844777 16.7558 0.773809 14.5827 0.778409 14.1418L0.781037 6.5232C0.754752 5.849 0.81915 3.66211 2.52568 1.8097C4.05151 0.153107 6.34878 0.0243125 7.01642 0.0243125L34.3058 0V11.3707H47.2425V0.0906824H57.3897L57.3693 4.26403L63.194 0.0906824H77.1485ZM25.1818 6.64912V2.43767L7.06644 2.43175C7.06644 2.43175 5.27842 2.37327 4.29472 3.44108C3.07117 4.76911 3.18617 6.46776 3.18617 6.46776L3.18354 14.1593C3.18354 14.1593 3.14937 15.6924 4.29801 16.9067C5.48213 18.1585 7.35885 18.0199 7.35885 18.0199H25.1818V13.8084H9.58451C9.58451 13.8084 9.26844 13.8406 8.92476 13.5357C8.67637 13.3156 8.66192 12.899 8.66192 12.899L8.65732 12.3345H25.1516V8.21306H8.66389L8.66455 7.63545C8.66455 7.63545 8.6422 7.2287 8.90899 6.933C9.1909 6.62021 9.65679 6.64912 9.65679 6.64912H25.1818ZM31.9002 2.40612H26.456V18.0186H48.6251V13.7775H31.9002V2.40612ZM70.4644 2.49681H63.9668L54.9413 8.96414L54.9729 2.49681H49.6482V17.9588H54.9729L54.9867 10.5885L63.7861 17.9588H70.6149L61.2595 10.1075L70.4644 2.49681Z" fill="#919EAB"/>
</svg>

<svg xmlns="http://www.w3.org/2000/svg" width="78" height="30" fill="none"><path fill="#919EAB" fill-rule="evenodd" d="M6.8 28.408c0 .78-.535 1.592-1.997 1.592-.935 0-1.633-.358-2.08-.86l.407-.52a2.235 2.235 0 0 0 1.697.779c.967 0 1.275-.52 1.275-.943 0-.642-.677-.824-1.41-1.02-.86-.233-1.798-.485-1.798-1.53 0-.893.796-1.51 1.868-1.51.82 0 1.462.284 1.917.763l-.406.495c-.407-.454-.975-.65-1.568-.65-.642 0-1.113.35-1.113.861 0 .533.613.7 1.303.887.889.241 1.906.518 1.906 1.656Zm9.47-3.322v4.816h-.674v-4.816h-1.713v-.601h4.11v.601H16.27Zm13.54 2.705c0 1.348-.747 2.209-2.217 2.209-1.462 0-2.21-.87-2.21-2.201v-3.314h.683v3.297c0 .991.528 1.617 1.527 1.617.998 0 1.535-.626 1.535-1.617v-3.297h.682v3.306Zm8.439 1.51h1.177c1.316 0 2.08-.942 2.08-2.103 0-1.17-.74-2.112-2.08-2.112h-1.178v4.216Zm3.955-2.103c0 1.543-1.089 2.704-2.778 2.704h-1.852v-5.417h1.852c1.69 0 2.778 1.178 2.778 2.713Zm8.227 2.704h-.674v-5.417h.675v5.417Zm8.244-2.704c0 1.258.771 2.2 1.99 2.2 1.21 0 1.998-.942 1.998-2.2 0-1.268-.788-2.201-1.998-2.201-1.219 0-1.99.933-1.99 2.201Zm4.687 0c0 1.6-1.097 2.802-2.697 2.802s-2.688-1.202-2.688-2.802 1.088-2.803 2.688-2.803 2.697 1.202 2.697 2.803Zm11.297 1.21c0 .78-.536 1.592-1.998 1.592-.934 0-1.633-.358-2.08-.86l.407-.52a2.235 2.235 0 0 0 1.697.779c.967 0 1.275-.52 1.275-.943 0-.642-.677-.824-1.41-1.02-.86-.233-1.798-.485-1.798-1.53 0-.893.796-1.51 1.868-1.51.82 0 1.462.284 1.917.763l-.406.495c-.406-.454-.975-.65-1.568-.65-.641 0-1.112.35-1.112.861 0 .533.612.7 1.302.887.889.241 1.906.518 1.906 1.656ZM56.173 19.16l.011-6 7.165 6h10.57l-10.78-9.047 10.667-8.82H63.58l-7.424 5.32.025-5.32h-7.735v11.28H33.103V1.203l-26.087.024c-.543 0-2.411.101-3.606 1.398C1.96 4.199 1.966 6.11 1.984 6.498L1.98 14.15c-.004.277.03 2.09 1.443 3.583 1.275 1.348 3.058 1.494 3.764 1.494.068 0 .136-.002.204-.005h18.992v-.001l23.444-.06h6.345ZM77.148.09l-12.13 10.03 12.205 10.243h-14.31l-5.531-4.632-.009 4.632h-6.342l-23.444.06-20.4.005c-.861 0-3.04-.182-4.636-1.87C.845 16.757.774 14.584.778 14.143l.003-7.619C.755 5.85.819 3.663 2.526 1.81 4.052.153 6.349.024 7.016.024L34.306 0v11.37h12.937V.09H57.39l-.02 4.174L63.193.091h13.954ZM25.182 6.65V2.437L7.066 2.432s-1.788-.059-2.771 1.01C3.07 4.768 3.186 6.467 3.186 6.467l-.002 7.691s-.035 1.533 1.114 2.748c1.184 1.252 3.06 1.113 3.06 1.113h17.824v-4.212H9.585s-.317.033-.66-.272c-.249-.22-.263-.637-.263-.637l-.005-.564h16.495V8.213H8.664v-.578s-.022-.406.245-.702c.282-.313.748-.284.748-.284h15.525ZM31.9 2.405h-5.444V18.02h22.17v-4.241H31.9V2.405Zm38.564.09h-6.497L54.94 8.965l.032-6.467h-5.325v15.462h5.325l.014-7.37 8.8 7.37h6.828l-9.355-7.851 9.204-7.611Z" clip-rule="evenodd"/></svg>
